!!!OTL: 1445. Edelwild.
!!!ARE: Europa, Mitteleuropa, Deutschland
!!!SCT: E1445
!!!TXL: @@BAR
!!!YEM: Copyright 1995, estate of Helmut Schaffrath.
**kern	**text
*ICvox	*
*M6/4	*
*k[b-]	*
*F:	*
!LO:TX:a:t=Nach Ott 1544, Nr. 6.	!
{4c	Es
=1	=1
2f	jagt
4g	ein
4a	Jä-
4f	-ger
4cc	ge-
=2	=2
(2cc	-ſchwin-
4b-)	.
2a}	-de
{4g	dort
=3	=3
2a	o-
4b-	-ben
2cc	vor
4b-	dem
=4	=4
[2.cc	Holʒ,
2cc]}	.
{4c	mit
=5	=5
2f	ſei-
4g	-nen
4a	ſchnel-
4f	-len
4cc	.
=6	=6
(2cc	Win-
4b-)	.
2a}	-den
{4g	fand
=7	=7
2a	er
4b-	ein
2cc	Wild,
4b-	wäs
=8	=8
[2.cc	ſtolʒ.
2cc]}	.
{4cc	Auf
=9	=9
2b-	ei-
4g	-ner
(4.a	wei-
8g)	.
8aL	-ten
8b-J	.
=10	=10
(4.cc	Hei-
8b-	.
4cc)	.
2f}	-den,
{4f	da
=11	=11
2g	er
4g	das
2e	Wild
4d	er-
=12	=12
[2.c	-ſach
4c]	.
4r}	.
{4c	mit
=13	=13
2f	ſei-
4f	-nen
2g	Win-
4g	-den
=14	=14
(4.a	bei-
8g	.
4a)	.
2f	-den
4r}	.
=15	=15
{4.a	hetʒt
8b-/	er
4cc	ihm
(4a	hin-
4f)	.
4g	-ten
=16	=16
2.f	nach.
4r	.
4r}	.
{4cc	"Vom
=17	=17
2cc	G'ſpür
4cc	will
(4.g	ich
8a)	.
4b-	nit
=18	=18
(2cc	ſchei-
4a)	.
2g}	-den,"
{4a	der-
=19	=19
2cc	-ſel-
4b-	-big
(4a	Jä-
4b-/)	.
4g	-ger
=20	=20
[2.f	ſprach.
4f]	.
4r}	.
==	==
!!!AGN: Staende -, Jaeger - Lied
!!!ONB: ESAC (Essen Associative Code) Database: ERK3
!!!AMT: compound duple
!!!AIN: vox
!!!EED: Helmut Schaffrath
!!!EEV: 1.0
!!!GTL: Staendelieder (Berufslieder). 2. Jaegerlieder und Jaegerballaden.
!!!URL-scan: https://rosdok.uni-rostock.de/mcrviewer/recordIdentifier/rosdok_ppn745177999/iview2/phys_0310.iview2?x=-128.77276441889285&y=1066.5635782857426&scale=0.5870222003877487&rotation=0&layout=singlePageLayout
!!!ENC: Anna Maria Matuszewska
!!!EEV: 2024/12/31
*-	*-
